svg/puzzle.svg

<svg xmlns="http://www.w3.org/2000/svg" viewBox="0 0 24 24"><path d="M20.5 11H19V7a2 2 0 0 0-2-2h-4V3.5A2.5 2.5 0 0 0 10.5 1 2.5 2.5 0 0 0 8 3.5V5H4a2 2 0 0 0-2 2v3.8h1.5c1.5 0 2.7 1.2 2.7 2.7S5 16.2 3.5 16.2H2V20a2 2 0 0 0 2 2h3.8v-1.5c0-1.5 1.2-2.7 2.7-2.7s2.7 1.2 2.7 2.7V22H17a2 2 0 0 0 2-2v-4h1.5a2.5 2.5 0 0 0 2.5-2.5 2.5 2.5 0 0 0-2.5-2.5"/></svg>

<?xml version="1.0" encoding="UTF-8"?><!DOCTYPE svg PUBLIC "-//W3C//DTD SVG 1.1//EN" "http://www.w3.org/Graphics/SVG/1.1/DTD/svg11.dtd"><svg xmlns="http://www.w3.org/2000/svg" xmlns:xlink="http://www.w3.org/1999/xlink" version="1.1" id="mdi-puzzle" width="24" height="24" viewBox="0 0 24 24"><path d="M20.5,11H19V7C19,5.89 18.1,5 17,5H13V3.5A2.5,2.5 0 0,0 10.5,1A2.5,2.5 0 0,0 8,3.5V5H4A2,2 0 0,0 2,7V10.8H3.5C5,10.8 6.2,12 6.2,13.5C6.2,15 5,16.2 3.5,16.2H2V20A2,2 0 0,0 4,22H7.8V20.5C7.8,19 9,17.8 10.5,17.8C12,17.8 13.2,19 13.2,20.5V22H17A2,2 0 0,0 19,20V16H20.5A2.5,2.5 0 0,0 23,13.5A2.5,2.5 0 0,0 20.5,11Z" /></svg>
